docs/assets/images/accounting.svg

<svg xmlns="http://www.w3.org/2000/svg" width="69" height="68" fill="none" viewBox="0 0 69 68"><path fill="#4ED7DE" d="M40.05 9.12029V8.99945H49.3344C53.1492 8.81148 55.4451 11.2383 55.4451 15.1085V47.8054C55.4451 49.764 54.856 51.3534 53.7802 52.4208L53.7433 52.4594C52.696 53.4764 51.1956 54.0084 49.3344 53.9161H30.0304C26.2173 54.1041 23.9214 51.6773 23.9214 47.8071V15.1085C23.9214 13.2926 24.4266 11.7955 25.3614 10.7365C25.8716 10.1524 26.5077 9.70434 27.2612 9.40728C27.8486 9.17567 28.5015 9.03805 29.2215 9.00113C29.4816 8.98602 29.7535 8.98602 30.0304 8.99945H30.6816"/><path fill="#D18000" d="M33.9491 8.99959H33.298C33.021 8.98616 32.7491 8.98616 32.489 9.00127C31.769 9.03819 31.962 8.74616 31.3763 8.97945L30.4717 9.17917V8.08491C30.4717 5.87792 31.8647 4.82227 34.0649 4.82227H39.7242C41.9262 4.82227 43.3175 5.87792 43.3175 8.08491V17.9668C43.3175 18.7506 42.621 19.2306 41.9245 18.6633L39.6806 16.6242C38.8783 15.884 38.3665 15.884 37.586 16.6242L35.3388 18.6633C34.6423 19.2306 33.9458 18.7506 33.9458 17.9668V8.99959H33.9491Z"/><path fill="#FFFAF0" d="M23.9215 47.805C23.9215 51.6769 26.2191 54.1038 30.0305 53.9141H49.3345C51.1957 54.0064 52.6961 53.4744 53.7434 52.4573L48.6161 57.5846C47.5705 58.5647 46.0903 59.0766 44.2643 58.986H24.9603C21.3453 59.1639 19.0913 56.9921 18.8681 53.4626C18.8563 53.2713 18.8496 53.0766 18.8496 52.8752V46.0479H23.9215V47.8034V47.805Z"/><path fill="#FFFAF0" d="M47.3388 23.0938C48.6881 23.0938 49.1782 23.7282 49.1782 24.9315V33.5866C49.1782 34.7899 48.6864 35.4277 47.3388 35.4277H34.5181C33.1688 35.4277 32.6787 34.7899 32.6787 33.5866V24.9315C32.6787 23.7282 33.1705 23.0938 34.5181 23.0938H47.3388Z"/><path fill="#002140" d="M26.0176 17.4398C26.37 16.8524 27.0128 16.458 27.7479 16.458C28.8623 16.458 29.7652 17.3609 29.7652 18.4753C29.7652 19.5897 28.8623 20.4893 27.7479 20.4893C27.0128 20.4893 26.37 20.0983 26.0176 19.5075H26.7158C27.2881 19.5075 27.7479 19.0426 27.7479 18.4753C27.7479 17.9081 27.2864 17.4415 26.7158 17.4415H26.0176V17.4398Z"/><path fill="#002140" d="M26.0176 30.6547C26.37 30.0656 27.0128 29.6729 27.7479 29.6729C28.8623 29.6729 29.7652 30.5758 29.7652 31.6902C29.7652 32.8046 28.8623 33.7042 27.7479 33.7042C27.0229 33.7042 26.3902 33.3249 26.036 32.7509H26.7158C27.2881 32.7509 27.7479 32.286 27.7479 31.717C27.7479 31.1481 27.2864 30.6849 26.7158 30.6849H26.0176V30.6547Z"/><path fill="#002140" d="M26.0176 43.9823C26.37 43.3932 27.0128 43.0005 27.7479 43.0005C28.8623 43.0005 29.7652 43.9034 29.7652 45.0161C29.7652 46.1289 28.8623 47.0318 27.7479 47.0318C27.0128 47.0318 26.37 46.6391 26.0176 46.05H26.7158C27.2881 46.05 27.7479 45.5851 27.7479 45.0161C27.7479 44.4472 27.2864 43.984 26.7158 43.984H26.0176V43.9823Z"/><path fill="#002140" d="M27.5599 17.4413C28.1322 17.4413 28.5921 17.9046 28.5921 18.4752C28.5921 19.0458 28.1306 19.5073 27.5599 19.5073H18.8495C16.2632 19.5073 15.085 20.8936 15.085 22.1826C15.085 23.4715 16.2615 24.8578 18.8495 24.8578V26.9238C15.0213 26.9238 13.019 24.5373 13.019 22.1809C13.019 19.8245 15.0213 17.438 18.8495 17.438H27.5599V17.4413Z"/><path fill="#002140" d="M27.5599 30.685C28.1322 30.685 28.5921 31.1482 28.5921 31.7172C28.5921 32.2861 28.1306 32.751 27.5599 32.751H18.8495C16.2632 32.751 15.085 34.1373 15.085 35.4246C15.085 36.7118 16.2615 38.1015 18.8495 38.1015V40.1658C15.0213 40.1658 13.019 37.7809 13.019 35.4229C13.019 33.0648 15.0213 30.6816 18.8495 30.6816H27.5599V30.685Z"/><path fill="#FFFAF0" d="M25.361 10.7365C24.4262 11.7956 23.921 13.2926 23.921 15.1085V17.4414H19.3711V17.3038C19.5641 16.8305 19.8108 16.4059 20.1045 16.0249L20.2136 15.894L25.3576 10.7349H25.361V10.7365Z"/><path fill="#FFFAF0" d="M23.9215 32.751V43.9839H18.8496V40.1674V38.1031V32.751H23.9215Z"/><path fill="#FFFAF0" d="M23.9215 19.509V30.6849H18.8496V20.1803C18.8496 20.0058 18.8563 19.8329 18.8647 19.6651V19.5073H23.9215V19.509Z"/><path fill="#002140" d="M27.5599 43.9836C28.1322 43.9836 28.5921 44.4468 28.5921 45.0158C28.5921 45.5847 28.1306 46.0496 27.5599 46.0496H18.8495C16.2632 46.0496 15.085 47.4359 15.085 48.7232C15.085 50.0104 16.2615 51.4001 18.8495 51.4001V52.877C18.8495 53.0767 18.8562 53.2714 18.868 53.4644L18.8495 53.4678C15.0213 53.4678 13.019 51.0812 13.019 48.7232C13.019 46.3651 15.0213 43.9819 18.8495 43.9819H27.5599V43.9836Z"/><path stroke="#04223F" stroke-linecap="round" stroke-linejoin="round" stroke-width="1" d="M55.4468 15.1084V47.8053"/><path stroke="#04223F" stroke-linecap="round" stroke-linejoin="round" stroke-width="1" d="M55.4467 15.1087C55.4467 11.2368 53.1491 8.80997 49.3359 8.99962"/><path stroke="#04223F" stroke-linecap="round" stroke-linejoin="round" stroke-width="1" d="M23.9214 46.0498V47.8053"/><path stroke="#04223F" stroke-linecap="round" stroke-linejoin="round" stroke-width="1" d="M23.9214 32.751V43.9839"/><path stroke="#04223F" stroke-linecap="round" stroke-linejoin="round" stroke-width="1" d="M23.9214 19.5088V30.6847"/><path stroke="#04223F" stroke-linecap="round" stroke-linejoin="round" stroke-width="1" d="M23.9214 15.1084V17.4413"/><path stroke="#04223F" stroke-linecap="round" stroke-linejoin="round" stroke-width="1" d="M23.9214 15.1087C23.9214 13.2927 24.4266 11.7957 25.3614 10.7367C25.8716 10.1526 26.5077 9.70451 27.2612 9.40745C27.8486 9.17584 28.5015 9.03822 29.2215 9.00129C29.4816 8.98619 29.7535 8.98619 30.0304 8.99962"/><path stroke="#04223F" stroke-linecap="round" stroke-linejoin="round" stroke-width="1" d="M30.0308 8.99951H33.8775"/><path stroke="#04223F" stroke-linecap="round" stroke-linejoin="round" stroke-width="1" d="M43.583 8.99951H49.3346"/><path stroke="#04223F" stroke-linecap="round" stroke-linejoin="round" stroke-width="1" d="M53.7449 52.4595C52.6976 53.4765 51.1972 54.0086 49.3359 53.9162"/><path stroke="#04223F" stroke-linecap="round" stroke-linejoin="round" stroke-width="1" d="M55.4466 47.8052C55.4466 49.7638 54.8575 51.3531 53.7817 52.4205"/><path stroke="#04223F" stroke-linecap="round" stroke-linejoin="round" stroke-width="1" d="M23.9214 47.8052C23.9214 51.677 26.219 54.1039 30.0304 53.9142"/><path stroke="#04223F" stroke-linecap="round" stroke-linejoin="round" stroke-width="1" d="M30.0308 53.916H49.3347"/><path stroke="#04223F" stroke-linecap="round" stroke-linejoin="round" stroke-width="1" d="M18.8496 20.1802V24.8593V26.9253V30.6847"/><path stroke="#04223F" stroke-linecap="round" stroke-linejoin="round" stroke-width="1" d="M18.8496 32.751V38.1031V40.1674V43.9839"/><path stroke="#04223F" stroke-linecap="round" stroke-linejoin="round" stroke-width="1" d="M18.8496 46.0498V51.4019V52.8789"/><path stroke="#04223F" stroke-linecap="round" stroke-linejoin="round" stroke-width="1" d="M19.3711 17.3038C19.5641 16.8305 19.8108 16.4059 20.1045 16.0249"/><path stroke="#04223F" stroke-linecap="round" stroke-linejoin="round" stroke-width="1" d="M18.8496 20.1803C18.8496 20.0057 18.8563 19.8329 18.8647 19.665"/><path stroke="#04223F" stroke-linecap="round" stroke-linejoin="round" stroke-width="1" d="M48.618 57.585C47.5724 58.5668 46.0921 59.0787 44.2661 58.988"/><path stroke="#04223F" stroke-linecap="round" stroke-linejoin="round" stroke-width="1" d="M18.8496 52.8789C18.8496 53.0786 18.8563 53.2733 18.8681 53.4663C19.0913 56.9941 21.3453 59.1675 24.9603 58.9896"/><path stroke="#04223F" stroke-linecap="round" stroke-linejoin="round" stroke-width="1" d="M24.9604 58.9878H44.2644"/><path stroke="#04223F" stroke-linecap="round" stroke-linejoin="round" stroke-width="1" d="M20.2139 15.894L25.3579 10.7349"/><path stroke="#04223F" stroke-linecap="round" stroke-linejoin="round" stroke-width="1" d="M48.6182 57.5867L53.7454 52.4595L53.7823 52.4209"/><path stroke="#04223F" stroke-linecap="round" stroke-linejoin="round" stroke-width="1" d="M32.6787 24.9315C32.6787 23.7282 33.1705 23.0938 34.5181 23.0938"/><path stroke="#04223F" stroke-linecap="round" stroke-linejoin="round" stroke-width="1" d="M49.1783 24.9315C49.1783 23.7282 48.6866 23.0938 47.3389 23.0938"/><path stroke="#04223F" stroke-linecap="round" stroke-linejoin="round" stroke-width="1" d="M32.6787 24.9316V33.5867"/><path stroke="#04223F" stroke-linecap="round" stroke-linejoin="round" stroke-width="1" d="M34.5181 23.0938H47.3387"/><path stroke="#04223F" stroke-linecap="round" stroke-linejoin="round" stroke-width="1" d="M32.6787 33.5864C32.6787 34.7898 33.1705 35.4275 34.5181 35.4275"/><path stroke="#04223F" stroke-linecap="round" stroke-linejoin="round" stroke-width="1" d="M49.1783 33.5864C49.1783 34.7898 48.6866 35.4275 47.3389 35.4275"/><path stroke="#04223F" stroke-linecap="round" stroke-linejoin="round" stroke-width="1" d="M34.5181 35.4292H47.3387"/><path stroke="#04223F" stroke-linecap="round" stroke-linejoin="round" stroke-width="1" d="M49.1787 24.9316V33.5867"/><path stroke="#06233E" stroke-linecap="round" stroke-linejoin="round" stroke-width="1" d="M18.8496 17.4414H26.1721C26.7444 17.4414 27.2042 17.9046 27.2042 18.4752C27.2042 19.0459 26.7427 19.5074 26.1721 19.5074H18.8496"/><path stroke="#06233E" stroke-linecap="round" stroke-linejoin="round" stroke-width="1" d="M18.8494 19.5088C16.2631 19.5088 15.085 20.8951 15.085 22.184C15.085 23.473 16.2615 24.8593 18.8494 24.8593"/><path stroke="#06233E" stroke-linecap="round" stroke-linejoin="round" stroke-width="1" d="M18.8495 26.9253C15.0213 26.9253 13.019 24.5387 13.019 22.1824C13.019 19.826 15.0213 17.4395 18.8495 17.4395"/><path stroke="#06233E" stroke-linecap="round" stroke-linejoin="round" stroke-width="1" d="M18.8496 30.6851H26.1721C26.7444 30.6851 27.2042 31.1483 27.2042 31.7172C27.2042 32.2862 26.7427 32.7511 26.1721 32.7511H18.8496"/><path stroke="#06233E" stroke-linecap="round" stroke-linejoin="round" stroke-width="1" d="M18.8494 32.751C16.2631 32.751 15.085 34.1373 15.085 35.4245C15.085 36.7118 16.2615 38.1014 18.8494 38.1014"/><path stroke="#06233E" stroke-linecap="round" stroke-linejoin="round" stroke-width="1" d="M18.8495 40.1673C15.0213 40.1673 13.019 37.7824 13.019 35.4243C13.019 33.0663 15.0213 30.6831 18.8495 30.6831"/><path stroke="#06233E" stroke-linecap="round" stroke-linejoin="round" stroke-width="1" d="M18.8496 43.9839H26.1721C26.7444 43.9839 27.2042 44.4471 27.2042 45.016C27.2042 45.585 26.7427 46.0499 26.1721 46.0499H18.8496"/><path stroke="#06233E" stroke-linecap="round" stroke-linejoin="round" stroke-width="1" d="M18.8494 46.0498C16.2631 46.0498 15.085 47.4361 15.085 48.7234C15.085 50.0106 16.2615 51.4003 18.8494 51.4003"/><path stroke="#06233E" stroke-linecap="round" stroke-linejoin="round" stroke-width="1" d="M18.8495 53.4678C15.0213 53.4678 13.019 51.0812 13.019 48.7232C13.019 46.3651 15.0213 43.9819 18.8495 43.9819"/><path stroke="#06233E" stroke-linecap="round" stroke-linejoin="round" stroke-width="1" d="M26.0176 17.4398C26.37 16.8524 27.0128 16.458 27.7479 16.458C28.8623 16.458 29.7652 17.3609 29.7652 18.4753C29.7652 19.5897 28.8623 20.4893 27.7479 20.4893C27.0128 20.4893 26.37 20.0983 26.0176 19.5075"/><path stroke="#06233E" stroke-linecap="round" stroke-linejoin="round" stroke-width="1" d="M26.0176 30.6547C26.37 30.0656 27.0128 29.6729 27.7479 29.6729C28.8623 29.6729 29.7652 30.5758 29.7652 31.6902C29.7652 32.8046 28.8623 33.7042 27.7479 33.7042C27.0229 33.7042 26.3902 33.3249 26.036 32.7509C26.0276 32.7408 26.0226 32.7307 26.0176 32.7223"/><path stroke="#06233E" stroke-linecap="round" stroke-linejoin="round" stroke-width="1" d="M26.0176 43.9823C26.37 43.3932 27.0128 43.0005 27.7479 43.0005C28.8623 43.0005 29.7652 43.9034 29.7652 45.0161C29.7652 46.1289 28.8623 47.0318 27.7479 47.0318C27.0128 47.0318 26.37 46.6391 26.0176 46.05"/><path stroke="#06233E" stroke-linecap="round" stroke-linejoin="round" stroke-width="1" d="M33.9492 8.08301V8.99937V9.12021V17.9649"/><path stroke="#06233E" stroke-linecap="round" stroke-linejoin="round" stroke-width="1" d="M35.3423 18.6614L37.5879 16.6206"/><path stroke="#06233E" stroke-linecap="round" stroke-linejoin="round" stroke-width="1" d="M35.3422 18.6613C34.6457 19.2286 33.9492 18.7486 33.9492 17.9648"/><path stroke="#06233E" stroke-linecap="round" stroke-linejoin="round" stroke-width="1" d="M43.3179 8.08301V8.99937V9.12021V17.9649"/><path stroke="#06233E" stroke-linecap="round" stroke-linejoin="round" stroke-width="1" d="M41.9244 18.6614L39.6821 16.6206"/><path stroke="#06233E" stroke-linecap="round" stroke-linejoin="round" stroke-width="1" d="M41.9248 18.6613C42.6213 19.2286 43.3178 18.7486 43.3178 17.9648"/><path stroke="#06233E" stroke-linecap="round" stroke-linejoin="round" stroke-width="1" d="M37.5879 16.6205C38.3683 15.8804 38.8802 15.8804 39.6824 16.6205"/><path stroke="#06233E" stroke-linecap="round" stroke-linejoin="round" stroke-width="1" d="M43.3179 8.08295C43.3179 5.87597 41.9249 4.82031 39.7246 4.82031"/><path stroke="#06233E" stroke-linecap="round" stroke-linejoin="round" stroke-width="1" d="M30.3965 8.89693C30.3965 5.5487 31.8633 4.82031 34.0653 4.82031"/><path stroke="#06233E" stroke-linecap="round" stroke-linejoin="round" stroke-width="1" d="M39.7247 4.82031H34.0654"/></svg>

<svg xmlns="http://www.w3.org/2000/svg" width="69" height="68" fill="none" viewBox="0 0 69 68"><path fill="#4ed7de" d="M40.05 9.12V9h9.284c3.815-.189 6.111 2.238 6.111 6.108v32.697c0 1.959-.589 3.548-1.665 4.616l-.037.038c-1.047 1.017-2.547 1.55-4.409 1.457H30.03c-3.813.188-6.109-2.239-6.109-6.109V15.108c0-1.815.506-3.312 1.44-4.372a4.85 4.85 0 0 1 1.9-1.329 6.2 6.2 0 0 1 1.96-.406q.392-.022.81-.002h.65"/><path fill="#d18000" d="M33.95 9h-.652a8 8 0 0 0-.809.001c-.72.037-.527-.255-1.113-.022l-.904.2V8.085c0-2.207 1.393-3.263 3.593-3.263h5.66c2.201 0 3.593 1.056 3.593 3.263v9.882c0 .784-.697 1.264-1.393.696l-2.244-2.039c-.803-.74-1.314-.74-2.095 0l-2.247 2.04c-.697.567-1.393.087-1.393-.697V9z"/><path fill="#fffaf0" d="M23.922 47.805c0 3.872 2.297 6.299 6.108 6.11h19.304c1.862.091 3.362-.44 4.41-1.458l-5.128 5.128c-1.045.98-2.526 1.492-4.352 1.401H24.96c-3.615.178-5.869-1.994-6.092-5.523a10 10 0 0 1-.018-.588v-6.827h5.072zm23.417-24.711c1.35 0 1.84.634 1.84 1.837v8.656c0 1.203-.493 1.84-1.84 1.84h-12.82c-1.35 0-1.84-.637-1.84-1.84V24.93c0-1.203.491-1.837 1.84-1.837z"/><path fill="#002140" d="M26.018 17.44a2.016 2.016 0 1 1 0 2.067h.698a1.032 1.032 0 0 0 0-2.065h-.698zm0 13.215a2.017 2.017 0 0 1 3.748 1.036 2.014 2.014 0 0 1-2.018 2.013c-.725 0-1.358-.38-1.712-.953h.68a1.033 1.033 0 0 0 0-2.066h-.698zm0 13.327a2.017 2.017 0 1 1 0 2.068h.698a1.033 1.033 0 0 0 0-2.066h-.698z"/><path fill="#002140" d="M27.56 17.441a1.032 1.032 0 1 1 0 2.066h-8.71c-2.587 0-3.765 1.387-3.765 2.676 0 1.288 1.177 2.675 3.764 2.675v2.066c-3.828 0-5.83-2.387-5.83-4.743s2.002-4.743 5.83-4.743h8.71zm0 13.244a1.034 1.034 0 0 1 0 2.066h-8.71c-2.587 0-3.765 1.386-3.765 2.674 0 1.287 1.177 2.677 3.764 2.677v2.064c-3.828 0-5.83-2.385-5.83-4.743s2.002-4.741 5.83-4.741h8.71z"/><path fill="#fffaf0" d="M25.361 10.737c-.935 1.059-1.44 2.556-1.44 4.371v2.333h-4.55v-.137a5.5 5.5 0 0 1 .734-1.28l.109-.13 5.144-5.16h.003zm-1.439 22.014v11.233H18.85V32.75zm0-13.242v11.176H18.85V20.18q0-.262.015-.515v-.158h5.057z"/><path fill="#002140" d="M27.56 43.984a1.034 1.034 0 0 1 0 2.066h-8.71c-2.587 0-3.765 1.386-3.765 2.673s1.177 2.677 3.764 2.677v1.477q0 .299.019.587l-.018.004c-3.829 0-5.831-2.387-5.831-4.745s2.002-4.741 5.83-4.741h8.71z"/><path stroke="#04223f" stroke-linecap="round" stroke-linejoin="round" d="M55.447 15.108v32.697m0-32.696c0-3.872-2.298-6.299-6.111-6.11M23.921 46.05v1.755m0-15.054v11.233m0-24.475v11.176m0-15.577v2.333m0-2.332c0-1.816.506-3.313 1.44-4.372a4.85 4.85 0 0 1 1.9-1.33 6.2 6.2 0 0 1 1.96-.406 8 8 0 0 1 .81-.001m-.001 0h3.847m9.706 0h5.752m4.41 43.46c-1.047 1.017-2.548 1.549-4.41 1.456m6.112-6.111c0 1.959-.59 3.548-1.665 4.615m-29.861-4.615c0 3.872 2.298 6.299 6.11 6.11m-.001.001h19.305M18.85 20.18v10.505m0 2.066v11.233m0 2.066v6.829m.521-35.575a5.5 5.5 0 0 1 .734-1.28M18.85 20.18q0-.262.015-.515m29.753 37.92c-1.046.982-2.526 1.494-4.352 1.403M18.85 52.879q0 .299.018.587c.223 3.528 2.477 5.701 6.092 5.524m0-.002h19.304m-24.05-43.094 5.144-5.16"/><path stroke="#04223f" stroke-linecap="round" stroke-linejoin="round" d="m48.618 57.587 5.127-5.128.037-.038M32.679 24.932c0-1.204.491-1.838 1.84-1.838m14.659 1.838c0-1.204-.491-1.838-1.84-1.838m-14.659 1.838v8.655m1.839-10.493h12.82M32.679 33.586c0 1.204.491 1.842 1.84 1.842m14.659-1.842c0 1.204-.491 1.842-1.84 1.842m-12.82.002h12.82m1.841-10.498v8.655"/><path stroke="#06233e" stroke-linecap="round" stroke-linejoin="round" d="M18.85 17.441h7.322a1.032 1.032 0 0 1 0 2.066H18.85m0 .002c-2.587 0-3.765 1.386-3.765 2.675s1.177 2.675 3.764 2.675"/><path stroke="#06233e" stroke-linecap="round" stroke-linejoin="round" d="M18.85 26.925c-3.829 0-5.831-2.386-5.831-4.743 0-2.356 2.002-4.742 5.83-4.742m.001 13.245h7.322a1.034 1.034 0 0 1 0 2.066H18.85m0 0c-2.587 0-3.765 1.386-3.765 2.674 0 1.287 1.177 2.676 3.764 2.676"/><path stroke="#06233e" stroke-linecap="round" stroke-linejoin="round" d="M18.85 40.167c-3.829 0-5.831-2.385-5.831-4.743s2.002-4.74 5.83-4.74m.001 13.3h7.322a1.034 1.034 0 0 1 0 2.066H18.85m0 0c-2.587 0-3.765 1.386-3.765 2.673s1.177 2.677 3.764 2.677"/><path stroke="#06233e" stroke-linecap="round" stroke-linejoin="round" d="M18.85 53.468c-3.829 0-5.831-2.387-5.831-4.745s2.002-4.741 5.83-4.741m7.169-26.542a2.016 2.016 0 1 1 0 2.067m0 11.148a2.017 2.017 0 0 1 3.748 1.036 2.014 2.014 0 0 1-2.018 2.013c-.725 0-1.358-.38-1.712-.953q-.011-.015-.018-.029m0 11.26a2.017 2.017 0 1 1 0 2.068M33.95 8.083v9.882m1.392.696 2.246-2.04m-2.246 2.04c-.696.568-1.393.088-1.393-.696m9.369-9.882v9.882m-1.394.696-2.242-2.04m2.243 2.04c.696.568 1.393.088 1.393-.696m-5.73-1.345c.78-.74 1.292-.74 2.094 0m3.636-8.537c0-2.207-1.393-3.263-3.593-3.263m-9.328 4.077c0-3.348 1.466-4.077 3.668-4.077m5.66 0h-5.66"/></svg>
